assets/images/index/list-8.svg

<svg width="53" height="53" viewBox="0 0 53 53" fill="none" xmlns="http://www.w3.org/2000/svg">
<circle cx="26.5" cy="26.5" r="26.5" fill="white"/>
<path d="M43.3956 22.1681H36.1055V24.7717L40.792 27.8961H45.4785" stroke="#0000FF" stroke-width="1.5"/>
<path d="M33.2109 19.2724H41.8524L45.2498 27.5231V35.477H33.2109V19.2724Z" stroke="#DF0112" stroke-width="1.5"/>
<rect x="12.3813" y="31.7702" width="23.4948" height="3.70725" fill="white" stroke="#DF0112" stroke-width="1.5"/>
<circle cx="36.6267" cy="35.186" r="3.4158" fill="white" stroke="#DF0112" stroke-width="1.5"/>
<circle cx="19.9661" cy="35.186" r="3.4158" fill="white" stroke="#DF0112" stroke-width="1.5"/>
<circle cx="11.6331" cy="35.186" r="3.4158" fill="white" stroke="#DF0112" stroke-width="1.5"/>
<line x1="12.3813" y1="25.8118" x2="12.3813" y2="32.0605" stroke="#DF0112" stroke-width="1.5"/>
<path d="M11.9575 25.2683L10.2263 22.2694L12.9741 14.6746L16.2233 13.4775L29.4189 18.2516L31.1501 21.2506L28.4023 28.8454L25.153 30.0424L11.9575 25.2683Z" stroke="#0000FF" stroke-width="1.5"/>
<line x1="12.0159" y1="25.154" x2="16.1951" y2="13.6028" stroke="#0000FF" stroke-width="1.5"/>
<line x1="24.7488" y1="29.7578" x2="28.928" y2="18.2066" stroke="#0000FF" stroke-width="1.5"/>
</svg>

<svg width="53" height="53" fill="none" xmlns="http://www.w3.org/2000/svg"><circle cx="26.5" cy="26.5" r="26.5" fill="#fff"/><path d="M43.396 22.168h-7.29v2.604l4.686 3.124h4.686" stroke="#00F" stroke-width="1.5"/><path d="M33.21 19.272h8.642l3.398 8.251v7.954H33.21V19.272z" stroke="#DF0112" stroke-width="1.5"/><path fill="#fff" stroke="#DF0112" stroke-width="1.5" d="M12.381 31.77h23.495v3.707H12.381z"/><circle cx="36.627" cy="35.186" r="3.416" fill="#fff" stroke="#DF0112" stroke-width="1.5"/><circle cx="19.966" cy="35.186" r="3.416" fill="#fff" stroke="#DF0112" stroke-width="1.5"/><circle cx="11.633" cy="35.186" r="3.416" fill="#fff" stroke="#DF0112" stroke-width="1.5"/><path stroke="#DF0112" stroke-width="1.5" d="M12.381 25.812v6.248"/><path d="M11.957 25.268l-1.73-2.999 2.747-7.594 3.25-1.198 13.195 4.775 1.731 2.999-2.748 7.594-3.249 1.197-13.195-4.774zm.059-.114l4.179-11.551m8.554 16.155l4.179-11.551" stroke="#00F" stroke-width="1.5"/></svg>
